;Generated with Cura_SteamEngine 15.05
; Default start code
G28 ; Home extruder
G1 Z15 F1000
M107 ; Turn off fan
G90 ; Absolute positioning
M82 ; Extruder in absolute mode
M190 S70
; Activate all used extruder
M104 T0 S210
G92 E0 ; Reset extruder position
; Wait for all used extruders to reach temperature
M109 T0 S210
;Layer count: 38
;LAYER:0
M107
G0 F9000 X64.281 Y64.281 Z0.200
;TYPE:SKIRT
G1 F1800 X135.719 Y64.281 E2.60770
G1 X135.719 Y135.719 E5.21540
G1 X64.281 Y135.719 E7.82310
G1 X64.281 Y64.281 E10.43080
G1 F2400 E6.43080
G0 F9000 X68.597 Y68.597
;TYPE:WALL-INNER
G1 F2400 E10.43080
G1 F1800 X131.403 Y68.597 E12.72341
G1 X131.403 Y131.403 E15.01602
G1 X68.597 Y131.403 E17.30863
G1 X68.597 Y68.597 E19.60123
G0 F9000 X71.403 Y71.403
G1 F1800 X71.403 Y128.597 E21.68899
G1 X128.597 Y128.597 E23.77674
G1 X128.597 Y71.403 E25.86449
G1 X71.403 Y71.403 E27.95224
G0 F9000 X71.842 Y71.842
G1 F1800 X71.842 Y128.158 E30.00795
G1 X128.158 Y128.158 E32.06365
G1 X128.158 Y71.842 E34.11935
G1 X71.842 Y71.842 E36.17506
G0 F9000 X68.158 Y68.158
G1 F1800 X131.842 Y68.158 E38.49971
G1 X131.842 Y131.842 E40.82437
G1 X68.158 Y131.842 E43.14903
G1 X68.158 Y68.158 E45.47368
G0 F9000 X67.719 Y67.719
;TYPE:WALL-OUTER
G1 F1800 X132.281 Y67.719 E47.83039
G1 X132.281 Y132.281 E50.18710
G1 X67.719 Y132.281 E52.54380
G1 X67.719 Y67.719 E54.90051
G0 F9000 X68.039 Y67.949
G0 X72.281 Y71.961
G0 X72.281 Y72.281
G1 F1800 X72.281 Y127.719 E56.92416
G1 X127.719 Y127.719 E58.94782
G1 X127.719 Y72.281 E60.97147
G1 X72.281 Y72.281 E62.99512
G0 F9000 X71.271 Y72.203
;TYPE:SKIN
G1 F1800 X68.728 Y69.660 E63.12640
G0 F9000 X68.728 Y70.281
G1 F1800 X71.271 Y72.824 E63.25768
G0 F9000 X71.271 Y73.445
G1 F1800 X68.728 Y70.902 E63.38895
G0 F9000 X68.728 Y71.523
G1 F1800 X71.271 Y74.065 E63.52021
G0 F9000 X71.271 Y74.686
G1 F1800 X68.728 Y72.143 E63.65148
G0 F9000 X68.728 Y72.764
G1 F1800 X71.271 Y75.307 E63.78276
G0 F9000 X71.271 Y75.928
G1 F1800 X68.728 Y73.385 E63.91404
G0 F9000 X68.728 Y74.006
G1 F1800 X71.271 Y76.549 E64.04532
G0 F9000 X71.271 Y77.170
G1 F1800 X68.728 Y74.627 E64.17659
G0 F9000 X68.728 Y75.248
G1 F1800 X71.271 Y77.790 E64.30784
G0 F9000 X71.271 Y78.411
G1 F1800 X68.728 Y75.869 E64.43910
G0 F9000 X68.728 Y76.489
G1 F1800 X71.271 Y79.032 E64.57037
G0 F9000 X71.271 Y79.653
G1 F1800 X68.728 Y77.110 E64.70165
G0 F9000 X68.728 Y77.731
G1 F1800 X71.271 Y80.274 E64.83293
G0 F9000 X71.271 Y80.895
G1 F1800 X68.728 Y78.352 E64.96421
G0 F9000 X68.728 Y78.973
G1 F1800 X71.271 Y81.515 E65.09546
G0 F9000 X71.271 Y82.136
G1 F1800 X68.728 Y79.594 E65.22671
G0 F9000 X71.271 Y71.582
G1 F1800 X68.728 Y69.039 E65.35799
G0 F9000 X69.039 Y68.729
G1 F1800 X71.580 Y71.270 E65.48916
G0 F9000 X72.201 Y71.270
G1 F1800 X69.659 Y68.729 E65.62036
G0 F9000 X70.280 Y68.729
G1 F1800 X72.822 Y71.270 E65.75156
G0 F9000 X73.442 Y71.270
G1 F1800 X70.901 Y68.729 E65.88273
G0 F9000 X71.522 Y68.729
G1 F1800 X74.063 Y71.270 E66.01391
G0 F9000 X74.684 Y71.270
G1 F1800 X72.143 Y68.729 E66.14508
G0 F9000 X72.764 Y68.729
G1 F1800 X75.305 Y71.270 E66.27626
G0 F9000 X75.926 Y71.270
G1 F1800 X73.384 Y68.729 E66.40746
G0 F9000 X74.005 Y68.729
G1 F1800 X76.547 Y71.270 E66.53866
G0 F9000 X77.167 Y71.270
G1 F1800 X74.626 Y68.729 E66.66983
G0 F9000 X75.247 Y68.729
G1 F1800 X77.788 Y71.270 E66.80100
G0 F9000 X78.409 Y71.270
G1 F1800 X75.868 Y68.729 E66.93218
G0 F9000 X76.489 Y68.729
G1 F1800 X79.030 Y71.270 E67.06335
G0 F9000 X79.651 Y71.270
G1 F1800 X77.109 Y68.729 E67.19455
G0 F9000 X77.730 Y68.729
G1 F1800 X80.272 Y71.270 E67.32575
G0 F9000 X80.893 Y71.270
G1 F1800 X78.351 Y68.729 E67.45695
G0 F9000 X78.972 Y68.729
G1 F1800 X81.513 Y71.270 E67.58813
G0 F9000 X82.134 Y71.270
G1 F1800 X79.593 Y68.729 E67.71930
G0 F9000 X80.214 Y68.729
G1 F1800 X82.755 Y71.270 E67.85048
G0 F9000 X83.376 Y71.270
G1 F1800 X80.835 Y68.729 E67.98165
G0 F9000 X81.455 Y68.729
G1 F1800 X83.997 Y71.270 E68.11285
G0 F9000 X84.618 Y71.270
G1 F1800 X82.076 Y68.729 E68.24405
G0 F9000 X82.697 Y68.729
G1 F1800 X85.238 Y71.270 E68.37522
G0 F9000 X85.859 Y71.270
G1 F1800 X83.318 Y68.729 E68.50640
G0 F9000 X83.939 Y68.729
G1 F1800 X86.480 Y71.270 E68.63757
G0 F9000 X87.101 Y71.270
G1 F1800 X84.560 Y68.729 E68.76875
G0 F9000 X85.180 Y68.729
G1 F1800 X87.722 Y71.270 E68.89995
G0 F9000 X88.343 Y71.270
G1 F1800 X85.801 Y68.729 E69.03115
G0 F9000 X86.422 Y68.729
G1 F1800 X88.963 Y71.270 E69.16232
G0 F9000 X89.584 Y71.270
G1 F1800 X87.043 Y68.729 E69.29349
G0 F9000 X87.664 Y68.729
G1 F1800 X90.205 Y71.270 E69.42467
G0 F9000 X90.826 Y71.270
G1 F1800 X88.285 Y68.729 E69.55584
G0 F9000 X88.905 Y68.729
G1 F1800 X91.447 Y71.270 E69.68704
G0 F9000 X92.068 Y71.270
G1 F1800 X89.526 Y68.729 E69.81824
G0 F9000 X90.147 Y68.729
G1 F1800 X92.688 Y71.270 E69.94942
G0 F9000 X93.309 Y71.270
G1 F1800 X90.768 Y68.729 E70.08059
G0 F9000 X91.389 Y68.729
G1 F1800 X93.930 Y71.270 E70.21176
G0 F9000 X94.551 Y71.270
G1 F1800 X92.010 Y68.729 E70.34294
G0 F9000 X92.630 Y68.729
G1 F1800 X95.172 Y71.270 E70.47414
G0 F9000 X95.793 Y71.270
G1 F1800 X93.251 Y68.729 E70.60534
G0 F9000 X93.872 Y68.729
G1 F1800 X96.414 Y71.270 E70.73654
G0 F9000 X97.034 Y71.270
G1 F1800 X94.493 Y68.729 E70.86771
G0 F9000 X95.114 Y68.729
G1 F1800 X97.655 Y71.270 E70.99889
G0 F9000 X98.276 Y71.270
G1 F1800 X95.735 Y68.729 E71.13006
G0 F9000 X96.356 Y68.729
G1 F1800 X98.897 Y71.270 E71.26123
G0 F9000 X99.518 Y71.270
G1 F1800 X96.976 Y68.729 E71.39243
G0 F9000 X97.597 Y68.729
G1 F1800 X100.139 Y71.270 E71.52363
G0 F9000 X100.759 Y71.270
G1 F1800 X98.218 Y68.729 E71.65481
G0 F9000 X98.839 Y68.729
G1 F1800 X101.380 Y71.270 E71.78598
G0 F9000 X102.001 Y71.270
G1 F1800 X99.460 Y68.729 E71.91716
G0 F9000 X100.081 Y68.729
G1 F1800 X102.622 Y71.270 E72.04833
G0 F9000 X103.243 Y71.270
G1 F1800 X100.701 Y68.729 E72.17953
G0 F9000 X101.322 Y68.729
G1 F1800 X103.864 Y71.270 E72.31073
G0 F9000 X104.484 Y71.270
G1 F1800 X101.943 Y68.729 E72.44191
G0 F9000 X102.564 Y68.729
G1 F1800 X105.105 Y71.270 E72.57308
G0 F9000 X105.726 Y71.270
G1 F1800 X103.185 Y68.729 E72.70425
G0 F9000 X103.806 Y68.729
G1 F1800 X106.347 Y71.270 E72.83543
G0 F9000 X106.968 Y71.270
G1 F1800 X104.426 Y68.729 E72.96663
G0 F9000 X105.047 Y68.729
G1 F1800 X107.589 Y71.270 E73.09783
G0 F9000 X108.209 Y71.270
G1 F1800 X105.668 Y68.729 E73.22900
G0 F9000 X106.289 Y68.729
G1 F1800 X108.830 Y71.270 E73.36018
G0 F9000 X109.451 Y71.270
G1 F1800 X106.910 Y68.729 E73.49135
G0 F9000 X107.531 Y68.729
G1 F1800 X110.072 Y71.270 E73.62252
G0 F9000 X110.693 Y71.270
G1 F1800 X108.151 Y68.729 E73.75372
G0 F9000 X108.772 Y68.729
G1 F1800 X111.314 Y71.270 E73.88492
G0 F9000 X111.935 Y71.270
G1 F1800 X109.393 Y68.729 E74.01612
G0 F9000 X110.014 Y68.729
G1 F1800 X112.555 Y71.270 E74.14730
G0 F9000 X113.176 Y71.270
G1 F1800 X110.635 Y68.729 E74.27847
G0 F9000 X111.256 Y68.729
G1 F1800 X113.797 Y71.270 E74.40965
G0 F9000 X114.418 Y71.270
G1 F1800 X111.877 Y68.729 E74.54082
G0 F9000 X112.497 Y68.729
G1 F1800 X115.039 Y71.270 E74.67202
G0 F9000 X115.660 Y71.270
G1 F1800 X113.118 Y68.729 E74.80322
G0 F9000 X113.739 Y68.729
G1 F1800 X116.280 Y71.270 E74.93439
G0 F9000 X116.901 Y71.270
G1 F1800 X114.360 Y68.729 E75.06557
G0 F9000 X114.981 Y68.729
G1 F1800 X117.522 Y71.270 E75.19674
G0 F9000 X118.143 Y71.270
G1 F1800 X115.602 Y68.729 E75.32792
G0 F9000 X116.222 Y68.729
G1 F1800 X118.764 Y71.270 E75.45912
G0 F9000 X119.385 Y71.270
G1 F1800 X116.843 Y68.729 E75.59032
G0 F9000 X117.464 Y68.729
G1 F1800 X120.005 Y71.270 E75.72149
G0 F9000 X120.626 Y71.270
G1 F1800 X118.085 Y68.729 E75.85267
G0 F9000 X118.706 Y68.729
G1 F1800 X121.247 Y71.270 E75.98384
G0 F9000 X121.868 Y71.270
G1 F1800 X119.327 Y68.729 E76.11501
G0 F9000 X119.947 Y68.729
G1 F1800 X122.489 Y71.270 E76.24621
G0 F9000 X123.110 Y71.270
G1 F1800 X120.568 Y68.729 E76.37741
G0 F9000 X121.189 Y68.729
G1 F1800 X123.730 Y71.270 E76.50859
G0 F9000 X124.351 Y71.270
G1 F1800 X121.810 Y68.729 E76.63976
G0 F9000 X122.431 Y68.729
G1 F1800 X124.972 Y71.270 E76.77094
G0 F9000 X125.593 Y71.270
G1 F1800 X123.052 Y68.729 E76.90211
G0 F9000 X123.672 Y68.729
G1 F1800 X126.214 Y71.270 E77.03331
G0 F9000 X126.835 Y71.270
G1 F1800 X124.293 Y68.729 E77.16451
G0 F9000 X124.914 Y68.729
G1 F1800 X127.455 Y71.270 E77.29568
G0 F9000 X128.076 Y71.270
G1 F1800 X125.535 Y68.729 E77.42686
G0 F9000 X126.156 Y68.729
G1 F1800 X128.697 Y71.270 E77.55803
G0 F9000 X128.728 Y71.301
G1 F1800 X131.270 Y73.843 E77.68926
G0 F9000 X131.270 Y73.223
G1 F1800 X126.777 Y68.729 E77.92123
G0 F9000 X127.398 Y68.729
G1 F1800 X131.270 Y72.602 E78.12114
G0 F9000 X131.270 Y71.981
G1 F1800 X128.018 Y68.729 E78.28901
G0 F9000 X128.639 Y68.729
G1 F1800 X131.270 Y71.360 E78.42483
G0 F9000 X131.270 Y70.739
G1 F1800 X129.260 Y68.729 E78.52860
G0 F9000 X129.881 Y68.729
G1 F1800 X131.270 Y70.118 E78.60030
G0 F9000 X131.270 Y69.497
G1 F1800 X130.502 Y68.729 E78.63995
G0 F9000 X131.123 Y68.729
G1 F1800 X131.270 Y68.877 E78.64756
G0 F9000 X128.728 Y71.921
G1 F1800 X131.270 Y74.464 E78.77881
G0 F9000 X131.270 Y75.085
G1 F1800 X128.728 Y72.542 E78.91007
G0 F9000 X128.728 Y73.163
G1 F1800 X131.270 Y75.706 E79.04132
G0 F9000 X131.270 Y76.327
G1 F1800 X128.728 Y73.784 E79.17257
G0 F9000 X128.728 Y74.405
G1 F1800 X131.270 Y76.948 E79.30382
G0 F9000 X131.270 Y77.568
G1 F1800 X128.728 Y75.026 E79.43505
G0 F9000 X128.728 Y75.646
G1 F1800 X131.270 Y78.189 E79.56630
G0 F9000 X131.270 Y78.810
G1 F1800 X128.728 Y76.267 E79.69755
G0 F9000 X128.728 Y76.888
G1 F1800 X131.270 Y79.431 E79.82880
G0 F9000 X131.270 Y80.052
G1 F1800 X128.728 Y77.509 E79.96005
G0 F9000 X128.728 Y78.130
G1 F1800 X131.270 Y80.673 E80.09130
G0 F9000 X131.270 Y81.293
G1 F1800 X128.728 Y78.751 E80.22253
G0 F9000 X128.728 Y79.372
G1 F1800 X131.270 Y81.914 E80.35376
G0 F9000 X131.270 Y82.535
G1 F1800 X128.728 Y79.992 E80.48501
G0 F9000 X128.728 Y80.613
G1 F1800 X131.270 Y83.156 E80.61626
G0 F9000 X131.270 Y83.777
G1 F1800 X128.728 Y81.234 E80.74751
G0 F9000 X128.728 Y81.855
G1 F1800 X131.270 Y84.398 E80.87876
G0 F9000 X131.270 Y85.018
G1 F1800 X128.728 Y82.476 E81.00999
G0 F9000 X128.728 Y83.097
G1 F1800 X131.270 Y85.639 E81.14121
G0 F9000 X131.270 Y86.260
G1 F1800 X128.728 Y83.717 E81.27246
G0 F9000 X128.728 Y84.338
G1 F1800 X131.270 Y86.881 E81.40372
G0 F9000 X131.270 Y87.502
G1 F1800 X128.728 Y84.959 E81.53497
G0 F9000 X128.728 Y85.580
G1 F1800 X131.270 Y88.123 E81.66622
G0 F9000 X131.270 Y88.744
G1 F1800 X128.728 Y86.201 E81.79747
G0 F9000 X128.728 Y86.822
G1 F1800 X131.270 Y89.364 E81.92870
G0 F9000 X131.270 Y89.985
G1 F1800 X128.728 Y87.442 E82.05995
G0 F9000 X128.728 Y88.063
G1 F1800 X131.270 Y90.606 E82.19120
G0 F9000 X131.270 Y91.227
G1 F1800 X128.728 Y88.684 E82.32245
G0 F9000 X128.728 Y89.305
G1 F1800 X131.270 Y91.848 E82.45370
G0 F9000 X131.270 Y92.469
G1 F1800 X128.728 Y89.926 E82.58495
G0 F9000 X128.728 Y90.547
G1 F1800 X131.270 Y93.089 E82.71618
G0 F9000 X131.270 Y93.710
G1 F1800 X128.728 Y91.167 E82.84743
G0 F9000 X128.728 Y91.788
G1 F1800 X131.270 Y94.331 E82.97868
G0 F9000 X131.270 Y94.952
G1 F1800 X128.728 Y92.409 E83.10993
G0 F9000 X128.728 Y93.030
G1 F1800 X131.270 Y95.573 E83.24119
G0 F9000 X131.270 Y96.194
G1 F1800 X128.728 Y93.651 E83.37244
G0 F9000 X128.728 Y94.272
G1 F1800 X131.270 Y96.814 E83.50366
G0 F9000 X131.270 Y97.435
G1 F1800 X128.728 Y94.893 E83.63489
G0 F9000 X128.728 Y95.513
G1 F1800 X131.270 Y98.056 E83.76614
G0 F9000 X131.270 Y98.677
G1 F1800 X128.728 Y96.134 E83.89739
G0 F9000 X128.728 Y96.755
G1 F1800 X131.270 Y99.298 E84.02864
G0 F9000 X131.270 Y99.919
G1 F1800 X128.728 Y97.376 E84.15990
G0 F9000 X128.728 Y97.997
G1 F1800 X131.270 Y100.539 E84.29112
G0 F9000 X131.270 Y101.160
G1 F1800 X128.728 Y98.618 E84.42235
G0 F9000 X128.728 Y99.238
G1 F1800 X131.270 Y101.781 E84.55360
G0 F9000 X131.270 Y102.402
G1 F1800 X128.728 Y99.859 E84.68485
G0 F9000 X128.728 Y100.480
G1 F1800 X131.270 Y103.023 E84.81610
G0 F9000 X131.270 Y103.644
G1 F1800 X128.728 Y101.101 E84.94735
G0 F9000 X128.728 Y101.722
G1 F1800 X131.270 Y104.265 E85.07861
G0 F9000 X131.270 Y104.885
G1 F1800 X128.728 Y102.343 E85.20983
G0 F9000 X128.728 Y102.963
G1 F1800 X131.270 Y105.506 E85.34108
G0 F9000 X131.270 Y106.127
G1 F1800 X128.728 Y103.584 E85.47233
G0 F9000 X128.728 Y104.205
G1 F1800 X131.270 Y106.748 E85.60359
G0 F9000 X131.270 Y107.369
G1 F1800 X128.728 Y104.826 E85.73484
G0 F9000 X128.728 Y105.447
G1 F1800 X131.270 Y107.990 E85.86609
G0 F9000 X131.270 Y108.610
G1 F1800 X128.728 Y106.068 E85.99731
G0 F9000 X128.728 Y106.688
G1 F1800 X131.270 Y109.231 E86.12857
G0 F9000 X131.270 Y109.852
G1 F1800 X128.728 Y107.309 E86.25982
G0 F9000 X128.728 Y107.930
G1 F1800 X131.270 Y110.473 E86.39107
G0 F9000 X131.270 Y111.094
G1 F1800 X128.728 Y108.551 E86.52232
G0 F9000 X128.728 Y109.172
G1 F1800 X131.270 Y111.715 E86.65357
G0 F9000 X131.270 Y112.335
G1 F1800 X128.728 Y109.793 E86.78480
G0 F9000 X128.728 Y110.414
G1 F1800 X131.270 Y112.956 E86.91602
G0 F9000 X131.270 Y113.577
G1 F1800 X128.728 Y111.034 E87.04728
G0 F9000 X128.728 Y111.655
G1 F1800 X131.270 Y114.198 E87.17853
G0 F9000 X131.270 Y114.819
G1 F1800 X128.728 Y112.276 E87.30978
G0 F9000 X128.728 Y112.897
G1 F1800 X131.270 Y115.440 E87.44103
G0 F9000 X131.270 Y116.060
G1 F1800 X128.728 Y113.518 E87.57226
G0 F9000 X128.728 Y114.139
G1 F1800 X131.270 Y116.681 E87.70348
G0 F9000 X131.270 Y117.302
G1 F1800 X128.728 Y114.759 E87.83473
G0 F9000 X128.728 Y115.380
G1 F1800 X131.270 Y117.923 E87.96598
G0 F9000 X131.270 Y118.544
G1 F1800 X128.728 Y116.001 E88.09724
G0 F9000 X128.728 Y116.622
G1 F1800 X131.270 Y119.165 E88.22849
G0 F9000 X131.270 Y119.786
G1 F1800 X128.728 Y117.243 E88.35974
G0 F9000 X128.728 Y117.864
G1 F1800 X131.270 Y120.406 E88.49097
G0 F9000 X131.270 Y121.027
G1 F1800 X128.728 Y118.484 E88.62222
G0 F9000 X128.728 Y119.105
G1 F1800 X131.270 Y121.648 E88.75347
G0 F9000 X131.270 Y122.269
G1 F1800 X128.728 Y119.726 E88.88472
G0 F9000 X128.728 Y120.347
G1 F1800 X131.270 Y122.890 E89.01597
G0 F9000 X131.270 Y123.511
G1 F1800 X128.728 Y120.968 E89.14722
G0 F9000 X128.728 Y121.589
G1 F1800 X131.270 Y124.131 E89.27845
G0 F9000 X131.270 Y124.752
G1 F1800 X128.728 Y122.209 E89.40970
G0 F9000 X128.728 Y122.830
G1 F1800 X131.270 Y125.373 E89.54095
G0 F9000 X131.270 Y125.994
G1 F1800 X128.728 Y123.451 E89.67220
G0 F9000 X128.728 Y124.072
G1 F1800 X131.270 Y126.615 E89.80346
G0 F9000 X131.270 Y127.236
G1 F1800 X128.728 Y124.693 E89.93471
G0 F9000 X128.728 Y125.314
G1 F1800 X131.270 Y127.856 E90.06593
G0 F9000 X131.270 Y128.477
G1 F1800 X128.728 Y125.935 E90.19716
G0 F9000 X128.728 Y126.555
G1 F1800 X131.270 Y129.098 E90.32841
G0 F9000 X131.270 Y129.719
G1 F1800 X128.728 Y127.176 E90.45966
G0 F9000 X128.728 Y127.797
G1 F1800 X131.270 Y130.340 E90.59091
G0 F9000 X131.270 Y130.961
G1 F1800 X128.728 Y128.418 E90.72216
G0 F9000 X128.417 Y128.728
G1 F1800 X130.959 Y131.270 E90.85339
G0 F9000 X130.338 Y131.270
G1 F1800 X127.796 Y128.728 E90.98462
G0 F9000 X127.175 Y128.728
G1 F1800 X129.717 Y131.270 E91.11584
G0 F9000 X129.096 Y131.270
G1 F1800 X126.555 Y128.728 E91.24704
G0 F9000 X125.934 Y128.728
G1 F1800 X128.475 Y131.270 E91.37824
G0 F9000 X127.854 Y131.270
G1 F1800 X125.313 Y128.728 E91.50944
G0 F9000 X124.692 Y128.728
G1 F1800 X127.233 Y131.270 E91.64064
G0 F9000 X126.613 Y131.270
G1 F1800 X124.071 Y128.728 E91.77187
G0 F9000 X123.450 Y128.728
G1 F1800 X125.992 Y131.270 E91.90309
G0 F9000 X125.371 Y131.270
G1 F1800 X122.830 Y128.728 E92.03429
G0 F9000 X122.209 Y128.728
G1 F1800 X124.750 Y131.270 E92.16549
G0 F9000 X124.129 Y131.270
G1 F1800 X121.588 Y128.728 E92.29669
G0 F9000 X120.967 Y128.728
G1 F1800 X123.508 Y131.270 E92.42789
G0 F9000 X122.888 Y131.270
G1 F1800 X120.346 Y128.728 E92.55912
G0 F9000 X119.725 Y128.728
G1 F1800 X122.267 Y131.270 E92.69034
G0 F9000 X121.646 Y131.270
G1 F1800 X119.105 Y128.728 E92.82154
G0 F9000 X118.484 Y128.728
G1 F1800 X121.025 Y131.270 E92.95274
G0 F9000 X120.404 Y131.270
G1 F1800 X117.863 Y128.728 E93.08394
G0 F9000 X117.242 Y128.728
G1 F1800 X119.783 Y131.270 E93.21514
G0 F9000 X119.163 Y131.270
G1 F1800 X116.621 Y128.728 E93.34637
G0 F9000 X116.000 Y128.728
G1 F1800 X118.542 Y131.270 E93.47760
