;Generated with Cura_SteamEngine 15.05
; Default start code
G28 ; Home extruder
G1 Z15 F1000
M107 ; Turn off fan
G90 ; Absolute positioning
M82 ; Extruder in absolute mode
M190 S70
; Activate all used extruder
M104 T0 S210
G92 E0 ; Reset extruder position
; Wait for all used extruders to reach temperature
M109 T0 S210
;Layer count: 13
;LAYER:0
M107
G0 F9000 X37.329 Y67.831 Z0.200
;TYPE:SKIRT
G1 F1800 X70.520 Y67.831 E1.21157
G1 X99.573 Y96.884 E2.71138
G1 X99.573 Y18.552 E5.57073
G1 X161.664 Y18.552 E7.83724
G1 X187.745 Y64.373 E9.76181
G1 X187.745 Y101.913 E11.13213
G1 X152.625 Y137.033 E12.94513
G1 X119.434 Y137.033 E14.15670
G1 X105.640 Y113.142 E15.16372
G1 X105.640 Y140.492 E16.16207
G1 X79.559 Y186.312 E18.08661
G1 X17.468 Y186.312 E20.35312
G1 X17.468 Y102.230 E23.42237
G1 X37.329 Y67.831 E24.87230
G1 F2400 E20.87230
G0 F9000 X39.821 Y72.147
;TYPE:WALL-INNER
G1 F2400 E24.87230
G1 F1800 X68.732 Y72.147 E25.92764
G1 X101.324 Y104.739 E27.61013
G1 X101.324 Y139.350 E28.87354
G1 X77.049 Y181.996 E30.66478
G1 X21.784 Y181.996 E32.68211
G1 X21.784 Y103.387 E35.55158
G1 X39.821 Y72.147 E36.86836
G0 F9000 X73.447 Y106.543
G1 F1800 X73.447 Y138.737 E38.04353
G1 X95.641 Y138.737 E38.85368
G1 X95.641 Y106.543 E40.02886
G1 X73.447 Y106.543 E40.83901
G0 F9000 X73.886 Y106.982
G1 F1800 X73.886 Y138.298 E41.98213
G1 X95.202 Y138.298 E42.76023
G1 X95.202 Y106.982 E43.90336
G1 X73.886 Y106.982 E44.68146
G0 F9000 X101.763 Y104.556
G1 F1800 X101.763 Y139.465 E45.95574
G1 X77.304 Y182.435 E47.76058
G1 X21.345 Y182.435 E49.80325
G1 X21.345 Y103.270 E52.69301
G1 X39.567 Y71.708 E54.02334
G1 X68.915 Y71.708 E55.09463
G1 X101.763 Y104.556 E56.79035
G0 F9000 X102.202 Y104.375
;TYPE:WALL-OUTER
G1 F1800 X102.202 Y139.583 E58.07554
G1 X77.560 Y182.874 E59.89387
G1 X20.906 Y182.874 E61.96191
G1 X20.906 Y103.153 E64.87197
G1 X39.314 Y71.269 E66.21587
G1 X69.096 Y71.269 E67.30301
G1 X102.202 Y104.375 E69.01204
G0 F9000 X101.882 Y104.475
G0 X94.763 Y107.101
G0 X94.763 Y107.421
G1 F1800 X74.325 Y107.421 E69.75809
G1 X74.325 Y137.859 E70.86916
G1 X94.763 Y137.859 E71.61521
G1 X94.763 Y107.421 E72.72629
G0 F9000 X95.772 Y107.258
;TYPE:SKIN
G1 F1800 X101.192 Y112.678 E73.00609
G0 F9000 X101.192 Y112.058
G1 F1800 X95.772 Y106.638 E73.28588
G0 F9000 X95.544 Y106.410
G1 F1800 X61.412 Y72.278 E75.04788
G0 F9000 X60.792 Y72.278
G1 F1800 X94.924 Y106.410 E76.80988
G0 F9000 X94.303 Y106.410
G1 F1800 X60.171 Y72.278 E78.57188
G0 F9000 X62.033 Y72.278
G1 F1800 X101.192 Y111.437 E80.59338
G0 F9000 X101.192 Y110.816
G1 F1800 X62.654 Y72.278 E82.58283
G0 F9000 X63.275 Y72.278
G1 F1800 X101.192 Y110.195 E84.54022
G0 F9000 X101.192 Y109.574
G1 F1800 X63.896 Y72.278 E86.46555
G0 F9000 X64.517 Y72.278
G1 F1800 X101.192 Y108.953 E88.35883
G0 F9000 X101.192 Y108.333
G1 F1800 X65.137 Y72.278 E90.22010
G0 F9000 X65.758 Y72.278
G1 F1800 X101.192 Y107.712 E92.04931
G0 F9000 X101.192 Y107.091
G1 F1800 X66.379 Y72.278 E93.84646
G0 F9000 X67.000 Y72.278
G1 F1800 X101.192 Y106.470 E95.61156
G0 F9000 X101.192 Y105.849
G1 F1800 X67.621 Y72.278 E97.34459
G0 F9000 X68.242 Y72.278
G1 F1800 X101.192 Y105.228 E99.04557
G0 F9000 X95.772 Y107.879
G1 F1800 X101.192 Y113.299 E99.32537
G0 F9000 X101.192 Y113.920
G1 F1800 X95.772 Y108.500 E99.60517
G0 F9000 X95.772 Y109.121
G1 F1800 X101.192 Y114.541 E99.88496
G0 F9000 X101.192 Y115.162
G1 F1800 X95.772 Y109.742 E100.16476
G0 F9000 X95.772 Y110.363
G1 F1800 X101.192 Y115.783 E100.44456
G0 F9000 X101.192 Y116.403
G1 F1800 X95.772 Y110.983 E100.72435
G0 F9000 X95.772 Y111.604
G1 F1800 X101.192 Y117.024 E101.00415
G0 F9000 X101.192 Y117.645
G1 F1800 X95.772 Y112.225 E101.28395
G0 F9000 X95.772 Y112.846
G1 F1800 X101.192 Y118.266 E101.56374
G0 F9000 X101.192 Y118.887
G1 F1800 X95.772 Y113.467 E101.84354
G0 F9000 X95.772 Y114.088
G1 F1800 X101.192 Y119.508 E102.12334
G0 F9000 X101.192 Y120.128
G1 F1800 X95.772 Y114.708 E102.40313
G0 F9000 X95.772 Y115.329
G1 F1800 X101.192 Y120.749 E102.68293
G0 F9000 X101.192 Y121.370
G1 F1800 X95.772 Y115.950 E102.96273
G0 F9000 X95.772 Y116.571
G1 F1800 X101.192 Y121.991 E103.24252
G0 F9000 X101.192 Y122.612
G1 F1800 X95.772 Y117.192 E103.52232
G0 F9000 X95.772 Y117.813
G1 F1800 X101.192 Y123.233 E103.80212
G0 F9000 X101.192 Y123.853
G1 F1800 X95.772 Y118.434 E104.08189
G0 F9000 X95.772 Y119.054
G1 F1800 X101.192 Y124.474 E104.36169
G0 F9000 X101.192 Y125.095
G1 F1800 X95.772 Y119.675 E104.64148
G0 F9000 X95.124 Y107.060
G0 X93.682 Y106.410
G1 F1800 X59.550 Y72.278 E106.40348
G0 F9000 X58.929 Y72.278
G1 F1800 X93.061 Y106.410 E108.16548
G0 F9000 X92.440 Y106.410
G1 F1800 X58.308 Y72.278 E109.92748
G0 F9000 X57.687 Y72.278
G1 F1800 X91.819 Y106.410 E111.68947
G0 F9000 X91.199 Y106.410
G1 F1800 X57.067 Y72.278 E113.45147
G0 F9000 X56.446 Y72.278
G1 F1800 X90.578 Y106.410 E115.21347
G0 F9000 X89.957 Y106.410
G1 F1800 X55.825 Y72.278 E116.97547
G0 F9000 X55.204 Y72.278
G1 F1800 X89.336 Y106.410 E118.73746
G0 F9000 X88.715 Y106.410
G1 F1800 X54.583 Y72.278 E120.49946
G0 F9000 X53.962 Y72.278
G1 F1800 X88.094 Y106.410 E122.26146
G0 F9000 X87.474 Y106.410
G1 F1800 X53.342 Y72.278 E124.02346
G0 F9000 X52.721 Y72.278
G1 F1800 X86.853 Y106.410 E125.78545
G0 F9000 X86.232 Y106.410
G1 F1800 X52.100 Y72.278 E127.54745
G0 F9000 X51.479 Y72.278
G1 F1800 X85.611 Y106.410 E129.30945
G0 F9000 X84.990 Y106.410
G1 F1800 X50.858 Y72.278 E131.07144
G0 F9000 X50.237 Y72.278
G1 F1800 X84.369 Y106.410 E132.83344
G0 F9000 X83.749 Y106.410
G1 F1800 X49.616 Y72.278 E134.59547
G0 F9000 X48.996 Y72.278
G1 F1800 X83.128 Y106.410 E136.35746
G0 F9000 X82.507 Y106.410
G1 F1800 X48.375 Y72.278 E138.11946
G0 F9000 X47.754 Y72.278
G1 F1800 X81.886 Y106.410 E139.88146
G0 F9000 X81.265 Y106.410
G1 F1800 X47.133 Y72.278 E141.64346
G0 F9000 X46.512 Y72.278
G1 F1800 X80.644 Y106.410 E143.40545
G0 F9000 X80.023 Y106.410
G1 F1800 X45.891 Y72.278 E145.16745
G0 F9000 X45.271 Y72.278
G1 F1800 X79.403 Y106.410 E146.92945
G0 F9000 X78.782 Y106.410
G1 F1800 X44.650 Y72.278 E148.69145
G0 F9000 X44.029 Y72.278
G1 F1800 X78.161 Y106.410 E150.45344
G0 F9000 X77.540 Y106.410
G1 F1800 X43.408 Y72.278 E152.21544
G0 F9000 X42.787 Y72.278
G1 F1800 X76.919 Y106.410 E153.97744
G0 F9000 X76.298 Y106.410
G1 F1800 X42.166 Y72.278 E155.73943
G0 F9000 X41.546 Y72.278
G1 F1800 X75.678 Y106.410 E157.50143
G0 F9000 X75.057 Y106.410
G1 F1800 X40.925 Y72.278 E159.26343
G0 F9000 X40.304 Y72.278
G1 F1800 X74.436 Y106.410 E161.02543
G0 F9000 X73.815 Y106.410
G1 F1800 X39.819 Y72.414 E162.78040
G0 F9000 X39.592 Y72.807
G1 F1800 X73.314 Y106.530 E164.52126
G0 F9000 X73.314 Y107.151
G1 F1800 X39.364 Y73.201 E166.27386
G0 F9000 X39.137 Y73.594
G1 F1800 X73.314 Y107.772 E168.03821
G0 F9000 X73.314 Y108.393
G1 F1800 X38.910 Y73.988 E169.81427
G0 F9000 X38.682 Y74.381
G1 F1800 X73.314 Y109.013 E171.60208
G0 F9000 X73.314 Y109.634
G1 F1800 X38.456 Y74.775 E173.40159
G0 F9000 X38.229 Y75.169
G1 F1800 X73.314 Y110.255 E175.21281
G0 F9000 X73.314 Y110.876
G1 F1800 X38.001 Y75.562 E177.03580
G0 F9000 X37.774 Y75.956
G1 F1800 X73.314 Y111.497 E178.87050
G0 F9000 X73.314 Y112.118
G1 F1800 X37.546 Y76.349 E180.71698
G0 F9000 X37.319 Y76.743
G1 F1800 X73.314 Y112.738 E182.57515
G0 F9000 X73.314 Y113.359
G1 F1800 X37.092 Y77.137 E184.44504
G0 F9000 X36.865 Y77.530
G1 F1800 X73.314 Y113.980 E186.32668
G0 F9000 X73.314 Y114.601
G1 F1800 X36.638 Y77.924 E188.22003
G0 F9000 X36.410 Y78.317
G1 F1800 X73.314 Y115.222 E190.12515
G0 F9000 X73.314 Y115.843
G1 F1800 X36.183 Y78.711 E192.04199
G0 F9000 X35.956 Y79.105
G1 F1800 X73.314 Y116.464 E193.97055
G0 F9000 X73.314 Y117.084
G1 F1800 X35.728 Y79.498 E195.91085
G0 F9000 X35.501 Y79.892
G1 F1800 X73.314 Y117.705 E197.86288
G0 F9000 X73.314 Y118.326
G1 F1800 X35.274 Y80.286 E199.82662
G0 F9000 X35.047 Y80.679
G1 F1800 X73.314 Y118.947 E201.80210
G0 F9000 X73.314 Y119.568
G1 F1800 X34.820 Y81.073 E203.78930
G0 F9000 X34.592 Y81.466
G1 F1800 X73.314 Y120.189 E205.78828
G0 F9000 X73.314 Y120.809
G1 F1800 X34.365 Y81.860 E207.79894
G0 F9000 X34.138 Y82.254
G1 F1800 X73.314 Y121.430 E209.82133
G0 F9000 X73.314 Y122.051
G1 F1800 X33.910 Y82.647 E211.85548
G0 F9000 X33.683 Y83.041
G1 F1800 X73.314 Y122.672 E213.90135
G0 F9000 X73.314 Y123.293
G1 F1800 X33.456 Y83.434 E215.95897
G0 F9000 X33.229 Y83.828
G1 F1800 X73.314 Y123.914 E218.02831
G0 F9000 X73.314 Y124.534
G1 F1800 X33.002 Y84.222 E220.10933
G0 F9000 X32.774 Y84.615
G1 F1800 X73.314 Y125.155 E222.20213
G0 F9000 X73.314 Y125.776
G1 F1800 X32.547 Y85.009 E224.30665
G0 F9000 X32.320 Y85.402
G1 F1800 X73.314 Y126.397 E226.42291
G0 F9000 X73.314 Y127.018
G1 F1800 X32.092 Y85.796 E228.55091
G0 F9000 X31.865 Y86.189
G1 F1800 X73.314 Y127.639 E230.69066
G0 F9000 X73.314 Y128.259
G1 F1800 X31.638 Y86.583 E232.84210
G0 F9000 X31.411 Y86.976
G1 F1800 X73.314 Y128.880 E235.00529
G0 F9000 X73.314 Y129.501
G1 F1800 X31.184 Y87.370 E237.18019
G0 F9000 X30.956 Y87.763
G1 F1800 X73.314 Y130.122 E239.36687
G0 F9000 X73.314 Y130.743
G1 F1800 X30.729 Y88.157 E241.56526
G0 F9000 X30.502 Y88.551
G1 F1800 X73.314 Y131.364 E243.77537
G0 F9000 X73.314 Y131.985
G1 F1800 X30.274 Y88.944 E245.99725
G0 F9000 X30.047 Y89.338
G1 F1800 X73.314 Y132.605 E248.23083
G0 F9000 X73.314 Y133.226
G1 F1800 X29.820 Y89.731 E250.47614
G0 F9000 X29.593 Y90.125
G1 F1800 X73.314 Y133.847 E252.73318
G0 F9000 X73.314 Y134.468
G1 F1800 X29.366 Y90.519 E255.00194
G0 F9000 X29.138 Y90.912
G1 F1800 X73.314 Y135.089 E257.28246
G0 F9000 X73.314 Y135.710
G1 F1800 X28.911 Y91.306 E259.57470
G0 F9000 X28.683 Y91.699
G1 F1800 X73.314 Y136.330 E261.87869
G0 F9000 X73.314 Y136.951
G1 F1800 X28.456 Y92.093 E264.19440
G0 F9000 X28.229 Y92.487
G1 F1800 X73.314 Y137.572 E266.52182
G0 F9000 X73.314 Y138.193
G1 F1800 X28.002 Y92.880 E268.86099
G0 F9000 X27.775 Y93.274
G1 F1800 X73.314 Y138.814 E271.21188
G0 F9000 X73.368 Y138.867
G1 F1800 X91.262 Y156.761 E272.13562
G0 F9000 X91.486 Y156.365
G1 F1800 X73.989 Y138.867 E273.03890
G0 F9000 X74.610 Y138.867
G1 F1800 X91.712 Y155.970 E273.92178
G0 F9000 X91.937 Y155.574
G1 F1800 X75.231 Y138.867 E274.78422
G0 F9000 X75.852 Y138.867
G1 F1800 X92.162 Y155.178 E275.62622
G0 F9000 X92.387 Y154.782
G1 F1800 X76.472 Y138.867 E276.44780
G0 F9000 X77.093 Y138.867
G1 F1800 X92.613 Y154.387 E277.24899
G0 F9000 X92.838 Y153.991
G1 F1800 X77.714 Y138.867 E278.02973
G0 F9000 X78.335 Y138.867
G1 F1800 X93.063 Y153.596 E278.79006
G0 F9000 X93.288 Y153.200
G1 F1800 X78.956 Y138.867 E279.52995
G0 F9000 X79.577 Y138.867
G1 F1800 X93.514 Y152.805 E280.24945
G0 F9000 X93.739 Y152.409
G1 F1800 X80.197 Y138.867 E280.94853
G0 F9000 X80.818 Y138.867
G1 F1800 X93.964 Y152.013 E281.62716
G0 F9000 X94.189 Y151.617
G1 F1800 X81.439 Y138.867 E282.28536
G0 F9000 X82.060 Y138.867
G1 F1800 X94.415 Y151.222 E282.92316
G0 F9000 X94.639 Y150.826
G1 F1800 X82.681 Y138.867 E283.54049
G0 F9000 X83.302 Y138.867
G1 F1800 X94.865 Y150.431 E284.13744
G0 F9000 X95.090 Y150.035
G1 F1800 X83.922 Y138.867 E284.71396
G0 F9000 X84.543 Y138.867
G1 F1800 X95.315 Y149.639 E285.27004
G0 F9000 X95.540 Y149.244
G1 F1800 X85.164 Y138.867 E285.80571
G0 F9000 X85.785 Y138.867
G1 F1800 X95.765 Y148.848 E286.32093
G0 F9000 X95.991 Y148.452
G1 F1800 X86.406 Y138.867 E286.81574
G0 F9000 X87.027 Y138.867
G1 F1800 X96.216 Y148.056 E287.29011
G0 F9000 X96.441 Y147.661
G1 F1800 X87.648 Y138.867 E287.74405
G0 F9000 X88.268 Y138.867
G1 F1800 X96.666 Y147.265 E288.17758
G0 F9000 X96.892 Y146.870
G1 F1800 X88.889 Y138.867 E288.59072
G0 F9000 X89.510 Y138.867
G1 F1800 X97.116 Y146.474 E288.98339
G0 F9000 X97.342 Y146.079
G1 F1800 X90.131 Y138.867 E289.35567
G0 F9000 X90.752 Y138.867
G1 F1800 X97.567 Y145.683 E289.70751
G0 F9000 X97.792 Y145.287
G1 F1800 X91.373 Y138.867 E290.03890
G0 F9000 X91.993 Y138.867
G1 F1800 X98.017 Y144.891 E290.34988
G0 F9000 X98.243 Y144.496
G1 F1800 X92.614 Y138.867 E290.64047
G0 F9000 X93.235 Y138.867
G1 F1800 X98.468 Y144.100 E290.91061
G0 F9000 X98.693 Y143.705
G1 F1800 X93.856 Y138.867 E291.16034
G0 F9000 X94.477 Y138.867
G1 F1800 X98.918 Y143.309 E291.38962
G0 F9000 X99.144 Y142.914
G1 F1800 X95.098 Y138.867 E291.59851
G0 F9000 X95.718 Y138.867
G1 F1800 X99.369 Y142.518 E291.78699
G0 F9000 X99.594 Y142.122
G1 F1800 X95.772 Y138.300 E291.98429
G0 F9000 X95.772 Y137.680
G1 F1800 X99.819 Y141.726 E292.19318
G0 F9000 X91.036 Y157.156
G1 F1800 X27.548 Y93.668 E295.47063
G0 F9000 X27.320 Y94.061
G1 F1800 X90.811 Y157.552 E298.74823
G0 F9000 X90.586 Y157.947
G1 F1800 X27.093 Y94.455 E302.02590
G0 F9000 X26.865 Y94.848
G1 F1800 X90.361 Y158.343 E305.30373
G0 F9000 X90.135 Y158.739
G1 F1800 X26.638 Y95.242 E308.58164
G0 F9000 X26.411 Y95.636
G1 F1800 X89.910 Y159.135 E311.85965
G0 F9000 X89.685 Y159.530
G1 F1800 X26.184 Y96.029 E315.13776
G0 F9000 X25.957 Y96.423
G1 F1800 X89.460 Y159.926 E318.41598
G0 F9000 X89.234 Y160.321
G1 F1800 X25.729 Y96.816 E321.69430
G0 F9000 X25.502 Y97.210
G1 F1800 X89.009 Y160.717 E324.97273
G0 F9000 X88.785 Y161.113
G1 F1800 X25.275 Y97.604 E328.25128
G0 F9000 X25.047 Y97.997
G1 F1800 X88.559 Y161.508 E331.52994
G0 F9000 X88.334 Y161.904
G1 F1800 X24.820 Y98.391 E334.80870
G0 F9000 X24.593 Y98.784
G1 F1800 X88.109 Y162.300 E338.08759
G0 F9000 X87.884 Y162.696
G1 F1800 X24.366 Y99.178 E341.36658
G0 F9000 X24.139 Y99.571
G1 F1800 X87.658 Y163.091 E344.64565
G0 F9000 X87.433 Y163.487
G1 F1800 X23.911 Y99.965 E347.92484
G0 F9000 X23.684 Y100.358
G1 F1800 X87.208 Y163.882 E351.20415
G0 F9000 X86.983 Y164.278
G1 F1800 X23.457 Y100.752 E354.48355
G0 F9000 X23.229 Y101.145
G1 F1800 X86.757 Y164.673 E357.76306
G0 F9000 X86.532 Y165.069
G1 F1800 X23.002 Y101.539 E361.04267
G0 F9000 X22.775 Y101.932
G1 F1800 X86.307 Y165.465 E364.32241
G0 F9000 X86.082 Y165.861
G1 F1800 X22.548 Y102.326 E367.60226
G0 F9000 X22.321 Y102.720
G1 F1800 X85.856 Y166.256 E370.88215
G0 F9000 X85.632 Y166.652
G1 F1800 X22.093 Y103.113 E374.16223
G0 F9000 X21.916 Y103.557
G1 F1800 X85.406 Y167.047 E377.43977
G0 F9000 X85.181 Y167.443
G1 F1800 X21.916 Y104.178 E380.70570
G0 F9000 X21.916 Y104.798
G1 F1800 X84.956 Y167.838 E383.96002
G0 F9000 X84.731 Y168.234
G1 F1800 X21.916 Y105.419 E387.20272
G0 F9000 X21.916 Y106.040
G1 F1800 X84.505 Y168.630 E390.43378
G0 F9000 X84.280 Y169.026
G1 F1800 X21.916 Y106.661 E393.65323
G0 F9000 X21.916 Y107.282
G1 F1800 X84.055 Y169.421 E396.86103
G0 F9000 X83.830 Y169.817
G1 F1800 X21.916 Y107.903 E400.05722
G0 F9000 X21.916 Y108.523
G1 F1800 X83.604 Y170.212 E403.24177
G0 F9000 X83.379 Y170.608
G1 F1800 X21.916 Y109.144 E406.41470
G0 F9000 X21.916 Y109.765
G1 F1800 X83.154 Y171.003 E409.57599
G0 F9000 X82.929 Y171.399
G1 F1800 X21.916 Y110.386 E412.72567
G0 F9000 X21.916 Y111.007
G1 F1800 X82.703 Y171.795 E415.86370
G0 F9000 X82.479 Y172.191
G1 F1800 X21.916 Y111.628 E418.99015
G0 F9000 X21.916 Y112.248
G1 F1800 X82.254 Y172.587 E422.10500
G0 F9000 X82.028 Y172.982
G1 F1800 X21.916 Y112.869 E425.20819
G0 F9000 X21.916 Y113.490
G1 F1800 X81.803 Y173.378 E428.29977
G0 F9000 X81.578 Y173.773
G1 F1800 X21.916 Y114.111 E431.37970
G0 F9000 X21.916 Y114.732
G1 F1800 X81.353 Y174.169 E434.44802
G0 F9000 X81.127 Y174.564
G1 F1800 X21.916 Y115.353 E437.50467
G0 F9000 X21.916 Y115.973
G1 F1800 X80.902 Y174.960 E440.54973
G0 F9000 X80.677 Y175.356
G1 F1800 X21.916 Y116.594 E443.58318
G0 F9000 X21.916 Y117.215
G1 F1800 X80.452 Y175.752 E446.60501
G0 F9000 X80.226 Y176.147
G1 F1800 X21.916 Y117.836 E449.61518
G0 F9000 X21.916 Y118.457
G1 F1800 X80.002 Y176.543 E452.61375
G0 F9000 X79.776 Y176.938
G1 F1800 X21.916 Y119.078 E455.60066
G0 F9000 X21.916 Y119.699
G1 F1800 X79.551 Y177.334 E458.57596
G0 F9000 X79.326 Y177.729
G1 F1800 X21.916 Y120.319 E461.53963
G0 F9000 X21.916 Y120.940
G1 F1800 X79.101 Y178.125 E464.49170
G0 F9000 X78.875 Y178.521
G1 F1800 X21.916 Y121.561 E467.43212
G0 F9000 X21.916 Y122.182
G1 F1800 X78.650 Y178.917 E470.36093
G0 F9000 X78.425 Y179.312
G1 F1800 X21.916 Y122.803 E473.27809
G0 F9000 X21.916 Y123.424
G1 F1800 X78.200 Y179.708 E476.18364
G0 F9000 X77.974 Y180.103
G1 F1800 X21.916 Y124.044 E479.07755
G0 F9000 X21.916 Y124.665
G1 F1800 X77.749 Y180.499 E481.95985
G0 F9000 X77.524 Y180.894
